!!!OTL: Die Ursache.
!!!OTL-incipit: IHR BRUEDER WAS HOERET MAN HEUT
!!!ARE: Europa, Mitteleuropa, Deutschland, Schwaben
!!!SCT: Z1348
!!!TXL: @@DE
!!!YEM: Copyright 1995, estate of Helmut Schaffrath.
**kern	**text
*ICvox	*
*M6/8	*
*k[f#]	*
*G:	*
!LO:TX:a:t=Aus Schwaben.	!
{8b	Jhr
=1	=1
8b	Brüder,
8b	.
8b	was
8b	hö-
8b	-ret
8b	man
=2	=2
(8bL	heut
16cc	.
16ddJ)	.
8ee	ʒu
(8ddL	Tag
8ccJ)}	.
{8b	viel
=3	=3
8a	grau-
8a	-ſa-
8a	-men
8a	Jam-
8a	-mer
8a	und
=4	=4
8a	bit-
(16bL	-te-
16ccJ)	.
8dd	-re
(8ccL	Klag',
8bJ)}	.
{8a	und
=5	=5
8b	Kei-
8b	-ner
8b	will
4b	halt
8b	ʒu-
=6	=6
8b	-frie-
16ccL	-den
16ddJ	.
8ee	mehr
(8ddL	ſeyn,
8ccJ)}	.
{8b	will
=7	=7
8a	nim-
8a	-mer
8a	und
8a	nim-
8b/	-mer
8cc#	ſich
=8	=8
8dd	ge-
8dd	-ben
8cc#	darein,
4dd;}	.
!LO:TX:a:t=Alle.	!
{16dd/L	von
16ccJ	.
=9	=9
8b/	we-
8b/	-gen
8b/	dem
8b/	Ding
4b/	da!
=10	=10
8b/	we-
16cc/L	-gen
16ddJ	.
8ee/	dem
8dd/	Ding
4cc/}	da!
=11	=11
{8a	we-
8a	-gen
8a	dem
8a	Ding
4cc/	da!
=12	=12
8b/	we-
8b/	-gen
8a	dem
4g}	Ding!
==	==
!!!AGN: Zech -, Schalks - Lied
!!!ONB: ESAC (Essen Associative Code) Database: ZUCCAL
!!!AMT: compound duple
!!!AIN: vox
!!!EED: Helmut Schaffrath
!!!EEV: 1.0
!!!GTL: VIII. Zech- und Schalks-Lieder.
!!!URL-scan: https://www.digitale-sammlungen.de/de/view/bsb11160573?page=637
!!!ENC: Anna Maria Matuszewska
!!!EEV: 2025/02/07
*-	*-
